X:1
T:Title
%%score { ( 1 4 ) | ( 2 3 ) }
L:1/8
Q:1/4=110
M:3/4
K:F
V:1 treble nm="Grand Piano"
V:4 treble 
V:2 bass 
V:3 bass 
V:1
 A2 _A2 =A2 | A2 B2 [CFA]2 | [B,FA]4 [B,FG]2 | [=B,FG]4 z2 | [B,EG]2 [A,E^F]2 [B,EG]2 | %5
w: Louise~Swan * *|||||
 [B,EG]2 [A,EA]2 [EB]2 | =B4 c2 | A4 z2 | [C^FA]2 [=B,F_A]2 [CF=A]2 | [C^FA]2 [=Fd]2 [Dc]2 | %10
w: |||||
 [Dc]4 [DB]2 | [DB]4 z2 | [G,=B,F]2 [G,B,E]2 [G,B,F]2 | [DF]2 z2 z2 | G6 | _A4 z2 | A2 _A2 =A2 | %17
w: |||||||
 G4 F2 | E6 | [EB]6 | [DEB]2 [CEA]2 [B,EG]2 | [A,E^F]4 [B,EG]2 | c6- | c4 z2 | A2 _A2 =A2 | %25
w: ||||||||
 [^FA]4 [Fc]2 | c4 B2 | [CFA]4 [DFG]2 | [CFA]2 [DFB]2 [CFA]2 | [B,DF]4 [B,CG]2 | [F,A,CF]6- | %31
w: ||||||
 [F,A,CF]4 z2 |] %32
w: |
V:2
 [F,CF]2 [F,=B,F]2 [F,CF]2 | C2 z2 z2 | D,4 D,2 | G,4 z2 | C,2 C,2 C,2 | C,2 C,2 [C,G,]2 | %6
 [F,_A,F]4 [F,=A,F]2 | [F,CF]4 z2 | D,2 D,2 D,2 | z2 A,2 [D,^F,]2 | [G,,G,]4 [G,,G,]2 | %11
 [G,,G,]4 z2 | D,2 D,2 D,2 | z2 F2 G,,2 | C,6- | C,4 z2 | [F,CF]2 [F,=B,F]2 [F,CF]2 | %17
 [F,B,C]4 [F,A,C]2 | [G,B,C]6 | [C,G,]6 | C,2 C,2 C,2 | C,4 C,2 | [F,A,F]6- | [F,A,F]4 z2 | %24
 [F,CF]2 [F,=B,F]2 [F,CF]2 | [D,C]4 [D,D]2 | [DG]4- [G,,DG]2 | A,,4 =B,,2 | C,2 C,2 C,2 | C,4 C,2 | %30
 F,,6- | F,,4 z2 |] %32
V:3
 x6 | [F,F]2- [F,DF]2 F,2 | x6 | x6 | x6 | x6 | x6 | x6 | x6 | D,4 z2 | x6 | x6 | x6 | G,,4 z2 | %14
 x6 | x6 | x6 | x6 | x6 | x6 | x6 | x6 | x6 | x6 | x6 | x6 | G,4 z2 | x6 | x6 | x6 | x6 | x6 |] %32
V:4
 x6 | x6 | x6 | x6 | x6 | x6 | x6 | x6 | x6 | x6 | x6 | x6 | x6 | B,2- [B,A]2 [B,FG]2 | [CE]6- | %15
 [CE]4 z2 | x6 | x6 | x6 | x6 | x6 | x6 | x6 | x6 | x6 | x6 | x6 | x6 | x6 | x6 | x6 | x6 |] %32

